X: 10791
M: 6/8
L: 1/8
K: D
|: g |\
fed fad | fda fdB | AFA d2e | fee .e2g |\
fed fad | fda fdB | AFA d2e | fdd d2 :|
|: g |\
fdf ece | dBd AFA | DFA d2e | fee .e2g |\
fdf ece | dBd AFA | DFA d2e | fdd d2 :|


